gdscript/src/main/resources/icons/godot_editor/BoneMapHumanLeftHand.svg

<svg width="256" height="256" viewBox="0 0 256 256" fill="none" xmlns="http://www.w3.org/2000/svg"><g clip-path="url(#clip0_1451_461)"><path d="M0 0H256V256H0V0Z" fill="#3F3F3F"/><path d="M175.976 196.525C177.738 179.792 183.01 158.184 180.609 131.477C180.323 128.299 179.484 119.406 179.494 110.794C179.5 105.5 178.966 98.6674 179 94.7501C179.042 89.9169 178.893 84.3541 178.844 80.8114C178.581 61.9514 175.537 59.3546 171.14 59.3546C166.829 59.3546 164.448 62.9211 164.375 80.5001C164.36 84.1051 164.5 93.2501 164.5 95.1251C164.5 99.5021 164.417 103.667 164.5 108.5C164.612 114.989 163.43 125.5 162.25 125.5C161.274 125.5 160.225 115.675 159.856 106.25C159.667 101.419 159.051 91.6664 159.206 88.7249C159.646 80.3716 159.325 73.9964 159.59 66.1836C160.386 42.7819 156.336 38.2514 150.917 38.2514C145.423 38.2514 141.922 52.6734 142.204 66.8074C142.236 68.4059 141.913 79.4921 142.251 89.2721C142.44 94.7249 141.984 101.679 141.831 106.69C141.557 115.632 140.392 122.664 139.613 122.664C138.953 122.664 138.58 114.518 138.249 106.237C138.035 100.848 137.132 91.6179 137.333 85.3331C137.805 70.5801 137.049 57.7766 137.068 54.9579C137.226 31.2191 133.403 24.1826 128.055 24.1826C122.686 24.1826 118.758 31.7306 118.905 55.0184C118.921 57.6509 118.25 79.9999 118.465 85.4724C118.681 90.9704 117.772 101.738 117.586 106.677C117.261 115.307 115.963 122.664 115.305 122.664C114.484 122.664 112.606 116.254 112.374 107.422C112.227 101.854 112.681 94.6749 112.53 89.7504C112.215 79.5736 111.736 73.5926 111.56 64.8234C111.074 40.5279 107.472 38.2511 102.025 38.2511C97.5357 38.2511 93.9117 45.4194 93.8607 67.0086C93.8445 73.9341 93.2535 82.6651 93.782 90.5909C93.9832 93.6111 93.6265 101.219 93.3132 109.064C93.1135 114.066 93.0377 120.94 93.029 125.008C92.9865 144.657 86.351 158.364 83.8902 157.835C76.307 156.205 70.9782 146.856 66.0855 128.508C63.4477 118.617 56.9187 110.721 48.6105 109.055C42.1355 107.757 43.6647 120.595 48.2807 140.378C50.4432 149.645 55.258 161.935 58.1722 171.042C66.0855 195.771 89.5657 218.183 98.398 228.179C102.684 233.029 157.621 233.029 164.545 228.179C167.427 226.161 175.317 202.789 175.976 196.525Z" fill="#B2B2B2"/></g><defs><clipPath id="clip0_1451_461"><rect width="256" height="256" fill="white"/></clipPath></defs></svg>

<svg width="256" height="256" viewBox="0 0 256 256" xmlns="http://www.w3.org/2000/svg"><path d="M0 0h256v256H0V0Z" fill="#3f3f3f"/><path d="M175.976 196.525c1.762-16.733 7.034-38.341 4.633-65.048-.286-3.178-1.125-12.071-1.115-20.683.006-5.294-.528-12.127-.494-16.044.042-4.833-.107-10.396-.156-13.939-.263-18.86-3.307-21.456-7.704-21.456-4.311 0-6.692 3.566-6.765 21.145-.015 3.605.125 12.75.125 14.625 0 4.377-.083 8.542 0 13.375.112 6.489-1.07 17-2.25 17-.976 0-2.025-9.825-2.394-19.25-.189-4.831-.805-14.584-.65-17.525.44-8.353.119-14.729.384-22.541.796-23.402-3.254-27.933-8.673-27.933-5.494 0-8.995 14.422-8.713 28.556.032 1.599-.291 12.685.047 22.465.189 5.453-.267 12.407-.42 17.418-.274 8.942-1.439 15.974-2.218 15.974-.66 0-1.033-8.146-1.364-16.427-.214-5.389-1.117-14.62-.916-20.904.472-14.753-.284-27.556-.265-30.375.158-23.739-3.665-30.775-9.013-30.775-5.369 0-9.297 7.548-9.15 30.835.016 2.633-.655 24.982-.44 30.454.216 5.498-.693 16.266-.879 21.205-.325 8.63-1.623 15.987-2.281 15.987-.821 0-2.699-6.41-2.931-15.242-.147-5.568.307-12.747.156-17.672-.315-10.176-.794-16.157-.97-24.927-.486-24.295-4.088-26.572-9.535-26.572-4.49 0-8.113 7.168-8.164 28.758-.017 6.925-.608 15.656-.079 23.582.201 3.02-.156 10.628-.469 18.473-.2 5.002-.275 11.876-.284 15.944-.042 19.649-6.678 33.356-9.139 32.827-7.583-1.63-12.912-10.979-17.805-29.327-2.637-9.891-9.166-17.787-17.474-19.453-6.475-1.298-4.946 11.54-.33 31.323 2.162 9.267 6.977 21.557 9.891 30.664 7.913 24.729 31.394 47.141 40.226 57.137 4.286 4.85 59.223 4.85 66.147 0 2.882-2.018 10.772-25.39 11.431-31.654Z" fill="#b2b2b2"/></svg>
